X:1
T:mountain of cock
M:4/4
C:lsv12
K:C
Q:160
V:1
%%MIDI program 32
|:CDFA cdfa|CDFA DEGB|CDFA cdfa|AFCD B2G2  :|
|:CDA4     |CDA2 CDB4|CDA4     |CDAF CFB2G2:|
